X:9335
T:Last House in Connaught
M:C
L:1/8
K:D Mixolydian
e|fdd^c d=cAB|c2Bd cAGE|D2ED EGAB|c2Bd cAGe|!
fdd^c d=cAB|c2Bd cAGE|D2ED EGAB|cAGE EDD:|!
e|fdd^c defg|add2 bdad|eccB cdef|gdd2 adgd|!
fdd^c d=cAB|c2Bd cAGE|D2ED EGAB|cAGE EDD:|!


